!!!SOCIAL_FUNCTION:	songs connected with the treatment of the sick
!!!PDT:	1932
!!!OTL: No_68_Healing_Song_from_the_Spirit_Women_(b).krn
!!!REG: Wisconsin
!!!LANG: Non-Tone
!!!LING_GROUP: Algonquin
**kern
*staff1
=1-
*clefF4
*k[]
*M3/4
2r
8r
8B\
=2!|:
2B\
16B\
16r
16A\LL
16A\JJ
=3||
*M2/4
8B\L
8B\J
8A\L
8A\J
=4||
*M3/4
8A\L
[8E\J
4E\]
16E\
16r
8E\
=5
2A\
16A\
16r
16A\LL
16F#\JJ
=6||
*M2/4
8B\L
8B\J
8A\L
8A\J
=7||
*M3/4
8A\L
8E\J
[4E\
16E\]
16r
16E/LL
16AA/JJ
=8||
*M2/4
4AA/
8r
8B\
=9:|!
4AA/
4r
==
*-
